build/images/content/features/icon_11.svg

<svg width="70" height="70" viewBox="0 0 70 70" fill="none" xmlns="http://www.w3.org/2000/svg">
<path fill-rule="evenodd" clip-rule="evenodd" d="M38.9996 30.1004H59.6996V23.5004C59.6996 21.5004 61.2996 19.9004 63.2996 19.9004C65.2996 19.9004 66.8996 21.5004 66.8996 23.5004V36.6004C66.8996 37.8004 66.8996 39.0004 66.8996 40.3004V54.6004C66.8996 60.2004 62.2996 64.8004 56.4996 64.8004H38.9996C33.2996 64.8004 28.5996 60.2004 28.5996 54.6004V40.3004C28.6996 34.7004 33.2996 30.1004 38.9996 30.1004ZM35.8996 52.5004C35.8996 55.3004 38.1996 57.6004 41.0996 57.6004H54.5996C57.4996 57.6004 59.7996 55.3004 59.7996 52.5004V42.3004V37.7004V37.2004H41.0996C38.1996 37.2004 35.8996 39.5004 35.8996 42.3004V52.5004ZM47.7996 43.3004C50.8996 43.3004 53.4996 45.4004 53.4996 47.9004C53.4996 50.4004 50.8996 52.5004 47.7996 52.5004C44.6996 52.5004 42.0996 50.4004 42.0996 47.9004C42.0996 45.4004 44.6996 43.3004 47.7996 43.3004Z" fill="#4283D0"/>
<path fill-rule="evenodd" clip-rule="evenodd" d="M30.9992 39.9002H10.2992V46.5002C10.2992 48.5002 8.69922 50.1002 6.69922 50.1002C4.69922 50.1002 3.09922 48.5002 3.09922 46.5002V33.4002C3.09922 32.2002 3.09922 31.0002 3.09922 29.7002V15.4002C2.99922 9.8002 7.69922 5.2002 13.3992 5.2002H30.9992C36.6992 5.2002 41.3992 9.8002 41.3992 15.4002V29.7002C41.2992 35.3002 36.6992 39.9002 30.9992 39.9002ZM34.0992 17.5002C34.0992 14.7002 31.7992 12.4002 28.8992 12.4002H15.3992C12.4992 12.4002 10.1992 14.7002 10.1992 17.5002V27.7002V32.3002V32.8002H28.7992C31.6992 32.8002 33.9992 30.5002 33.9992 27.7002V17.5002H34.0992ZM22.1992 26.7002C19.0992 26.7002 16.4992 24.6002 16.4992 22.1002C16.4992 19.6002 19.0992 17.5002 22.1992 17.5002C25.2992 17.5002 27.8992 19.6002 27.8992 22.1002C27.8992 24.6002 25.2992 26.7002 22.1992 26.7002Z" fill="#4283D0"/>
</svg>

<svg width="70" height="70" fill="none" xmlns="http://www.w3.org/2000/svg"><path fill-rule="evenodd" clip-rule="evenodd" d="M39 30.1h20.7v-6.6c0-2 1.6-3.6 3.6-3.6s3.6 1.6 3.6 3.6v31.1c0 5.6-4.6 10.2-10.4 10.2H39c-5.7 0-10.4-4.6-10.4-10.2V40.3c.1-5.6 4.7-10.2 10.4-10.2zm-3.1 22.4c0 2.8 2.3 5.1 5.2 5.1h13.5c2.9 0 5.2-2.3 5.2-5.1V37.2H41.1c-2.9 0-5.2 2.3-5.2 5.1v10.2zm11.9-9.2c3.1 0 5.7 2.1 5.7 4.6 0 2.5-2.6 4.6-5.7 4.6s-5.7-2.1-5.7-4.6c0-2.5 2.6-4.6 5.7-4.6z" fill="#4283D0"/><path fill-rule="evenodd" clip-rule="evenodd" d="M31 39.9H10.3v6.6c0 2-1.6 3.6-3.6 3.6s-3.6-1.6-3.6-3.6V15.4C3 9.8 7.7 5.2 13.4 5.2H31c5.7 0 10.4 4.6 10.4 10.2v14.3c-.1 5.6-4.7 10.2-10.4 10.2zm3.1-22.4c0-2.8-2.3-5.1-5.2-5.1H15.4c-2.9 0-5.2 2.3-5.2 5.1v15.3h18.6c2.9 0 5.2-2.3 5.2-5.1V17.5h.1zm-11.9 9.2c-3.1 0-5.7-2.1-5.7-4.6 0-2.5 2.6-4.6 5.7-4.6s5.7 2.1 5.7 4.6c0 2.5-2.6 4.6-5.7 4.6z" fill="#4283D0"/></svg>
